X: 4967
T: Brenda Stubbert's
R: reel
M: 4/4
K: Dmajor
A|:B2 B2 ABcA|B2 Ae feec|A2 cB cAAc|d2 cB cAFA|
B4 ABBA|B2 ce fe e2|afec ABce|f2 ec fBBA:|
(3BBB b2 B2 a2|fbaf bafa|A2 cB cAAc|d2cB cA A2|
B2 b2 B2 a2|fbaf bafb|afec ABce|f2 ec fB B2|
B2 b2 B2 a2|fbaf bafa|A2 cB cAAc|d2 cB cBBA|
B2 cB ABcA|B2 ce fe e2|afec ABce|f2 ec fBBA||

